src/pos-icons/keyboard-outline.svg

<svg height="24" viewBox="0 0 24 24" width="24" xmlns="http://www.w3.org/2000/svg"><path d="m4 5a2 2 0 0 0 -2 2v10a2 2 0 0 0 2 2h16a2 2 0 0 0 2-2v-10a2 2 0 0 0 -2-2zm0 2h16v10h-16zm1 1v2h2v-2zm3 0v2h2v-2zm3 0v2h2v-2zm3 0v2h2v-2zm3 0v2h2v-2zm-12 3v2h2v-2zm3 0v2h2v-2zm3 0v2h2v-2zm3 0v2h2v-2zm3 0v2h2v-2zm-9 3v2h8v-2z"/></svg>

<?xml version="1.0" encoding="UTF-8"?><!DOCTYPE svg PUBLIC "-//W3C//DTD SVG 1.1//EN" "http://www.w3.org/Graphics/SVG/1.1/DTD/svg11.dtd"><svg xmlns="http://www.w3.org/2000/svg" xmlns:xlink="http://www.w3.org/1999/xlink" version="1.1" id="mdi-keyboard-outline" width="24" height="24" viewBox="0 0 24 24"><path d="M4,5A2,2 0 0,0 2,7V17A2,2 0 0,0 4,19H20A2,2 0 0,0 22,17V7A2,2 0 0,0 20,5H4M4,7H20V17H4V7M5,8V10H7V8H5M8,8V10H10V8H8M11,8V10H13V8H11M14,8V10H16V8H14M17,8V10H19V8H17M5,11V13H7V11H5M8,11V13H10V11H8M11,11V13H13V11H11M14,11V13H16V11H14M17,11V13H19V11H17M8,14V16H16V14H8Z" /></svg>
